X:45
T:Robin Adair
A:Wyresdale, Lancashire
B:H.S.J. Jackson, 1823
L:1/4
M:3/4
O:England
Z:Richard Robinson 
%%TUNEURL: http://www.leeds.ac.uk/music/Info/RRTuneBk/gettune/00000dfa.html
%%ID:00000dfa
K:C
GAB | c>de | G/>c/ A/>c/ B/>d/ | c3 |\
GAB | c>de | G/<c/ A/<c/ B/<d/ | c3 |
eee | g>GG | e (e/g/) (3f/d/B/ | c>A G|\
g (f/e/ d/c/) | c>dHe | G/>c/ A/>c/ B/>d/ | c2 | "@0,0Finis hujus" yyyy x
%page:6 and 7
